svg/media/miniplayer_line.svg

<?xml version="1.0" encoding="UTF-8"?>
<svg width="24px" height="24px" viewBox="0 0 24 24" version="1.1" xmlns="http://www.w3.org/2000/svg" xmlns:xlink="http://www.w3.org/1999/xlink">
    <title>miniplayer_line</title>
    <g id="Icon" stroke="none" stroke-width="1" fill="none" fill-rule="evenodd">
        <g id="Media" transform="translate(-384.000000, -192.000000)" fill-rule="nonzero">
            <g id="miniplayer_line" transform="translate(384.000000, 192.000000)">
                <path d="M24,0 L24,24 L0,24 L0,0 L24,0 Z M12.5934901,23.257841 L12.5819402,23.2595131 L12.5108777,23.2950439 L12.4918791,23.2987469 L12.4918791,23.2987469 L12.4767152,23.2950439 L12.4056548,23.2595131 C12.3958229,23.2563662 12.3870493,23.2590235 12.3821421,23.2649074 L12.3780323,23.275831 L12.360941,23.7031097 L12.3658947,23.7234994 L12.3769048,23.7357139 L12.4804777,23.8096931 L12.4953491,23.8136134 L12.4953491,23.8136134 L12.5071152,23.8096931 L12.6106902,23.7357139 L12.6232938,23.7196733 L12.6232938,23.7196733 L12.6266527,23.7031097 L12.609561,23.275831 C12.6075724,23.2657013 12.6010112,23.2592993 12.5934901,23.257841 L12.5934901,23.257841 Z M12.8583906,23.1452862 L12.8445485,23.1473072 L12.6598443,23.2396597 L12.6498822,23.2499052 L12.6498822,23.2499052 L12.6471943,23.2611114 L12.6650943,23.6906389 L12.6699349,23.7034178 L12.6699349,23.7034178 L12.678386,23.7104931 L12.8793402,23.8032389 C12.8914285,23.8068999 12.9022333,23.8029875 12.9078286,23.7952264 L12.9118235,23.7811639 L12.8776777,23.1665331 C12.8752882,23.1545897 12.8674102,23.1470016 12.8583906,23.1452862 L12.8583906,23.1452862 Z M12.1430473,23.1473072 C12.1332178,23.1423925 12.1221763,23.1452606 12.1156365,23.1525954 L12.1099173,23.1665331 L12.0757714,23.7811639 C12.0751323,23.7926639 12.0828099,23.8018602 12.0926481,23.8045676 L12.108256,23.8032389 L12.3092106,23.7104931 L12.3186497,23.7024347 L12.3186497,23.7024347 L12.3225043,23.6906389 L12.340401,23.2611114 L12.337245,23.2485176 L12.337245,23.2485176 L12.3277531,23.2396597 L12.1430473,23.1473072 Z" id="MingCute"></path>
                <path d="M20,12 C21.1046,12 22,12.8954 22,14 L22,18 C22,19.1046 21.1046,20 20,20 L15,20 C13.8954,20 13,19.1046 13,18 L13,14 C13,12.8954 13.8954,12 15,12 L20,12 Z M19,4 C20.1046,4 21,4.89543 21,6 L21,10 C21,10.5523 20.5523,11 20,11 C19.4477,11 19,10.5523 19,10 L19,6 L4,6 L4,17 L11,17 C11.5523,17 12,17.4477 12,18 C12,18.5523 11.5523,19 11,19 L4,19 C2.89543,19 2,18.1046 2,17 L2,6 C2,4.89543 2.89543,4 4,4 L19,4 Z M20,14 L15,14 L15,18 L20,18 L20,14 Z M7.08699,7.6729 L9.00217,9.58808 L9.00217,9.0022 C9.00217,8.44991 9.44988,8.0022 10.0022,8.0022 C10.5545,8.0022 11.0022,8.44991 11.0022,9.0022 L11.0022,12.0022 C11.0022,12.5545 10.5545,13.0022 10.0022,13.0022 L7.00217,13.0022 C6.44988,13.0022 6.00217,12.5545 6.00217,12.0022 C6.00217,11.4499 6.44988,11.0022 7.00217,11.0022 L7.58786,11.0022 L5.67278,9.08711 C5.28225,8.69659 5.28225,8.06342 5.67278,7.6729 C6.0633,7.28237 6.69647,7.28237 7.08699,7.6729 Z" id="形状" fill="#09244B"></path>
            </g>
        </g>
    </g>
</svg>

<svg xmlns="http://www.w3.org/2000/svg" width="24" height="24"><g fill="none" fill-rule="nonzero"><path d="M24 0v24H0V0h24ZM12.593 23.258l-.011.002-.071.035-.02.004-.014-.004-.071-.035c-.01-.004-.019-.001-.024.005l-.004.01-.017.428.005.02.01.013.104.074.015.004.012-.004.104-.074.012-.016.004-.017-.017-.427c-.002-.01-.009-.017-.017-.018Zm.265-.113-.013.002-.185.093-.01.01-.003.011.018.43.005.012.008.007.201.093c.012.004.023 0 .029-.008l.004-.014-.034-.614c-.003-.012-.01-.02-.02-.022Zm-.715.002a.023.023 0 0 0-.027.006l-.006.014-.034.614c0 .012.007.02.017.024l.015-.002.201-.093.01-.008.004-.011.017-.43-.003-.012-.01-.01-.184-.092Z"/><path fill="#09244B" d="M20 12a2 2 0 0 1 2 2v4a2 2 0 0 1-2 2h-5a2 2 0 0 1-2-2v-4a2 2 0 0 1 2-2h5Zm-1-8a2 2 0 0 1 2 2v4a1 1 0 1 1-2 0V6H4v11h7a1 1 0 1 1 0 2H4a2 2 0 0 1-2-2V6a2 2 0 0 1 2-2h15Zm1 10h-5v4h5v-4ZM7.087 7.673l1.915 1.915v-.586a1 1 0 1 1 2 0v3a1 1 0 0 1-1 1h-3a1 1 0 1 1 0-2h.586L5.673 9.087a1 1 0 1 1 1.414-1.414Z"/></g></svg>
